assets/avatars/avatars_5.svg

<svg viewBox="0 0 106 106" xmlns="http://www.w3.org/2000/svg"><path d="m84.5 106v-44s1-27-32-24c0 0-27-2-30 23l-1 45z" fill="#ecac4b"/><path d="m27.5 62v21s5 7 24 7c0 0 21 2 27-7v-20s-6-13-27-12c0 0-20 0-24 11z" fill="#435766"/><circle cx="62" cy="72.5" fill="#497485" r="7.5"/><circle cx="61.84" cy="72.67" fill="#68ebfe" r="2.66"/><circle cx="44" cy="72.5" fill="#497485" r="7.5"/><circle cx="43.84" cy="72.67" fill="#68ebfe" r="2.66"/><path d="m52.82 20.56h1.18c.08.07.16.2.25.21 3 .23 5.15 2.28 5.85 5.56.14.63-.1 1.35.38 1.91v2.16c-.41.18-.31.62-.41.92-.46 1.42-1.33 2.69-2.74 2.9-2.21.34-2.27 1.65-2.1 3.31a11.78 11.78 0 0 1 0 1.19c0 3 0 3-3 3-1 0-1.12-.32-1.09-1.16.07-1.68 0-3.35 0-5 0-.49 0-.8-.67-.87-2.18-.23-3.3-1.69-4-3.63-.12-.39 0-.89-.47-1.15v-2.91c.44-.17.32-.61.39-.91a6.86 6.86 0 0 1 5.62-5.31c.34-.01.68.16.81-.22zm.18 10.69a3.77 3.77 0 1 0 -3.74-3.82 3.7 3.7 0 0 0 3.74 3.82z" fill="#ecac4b"/></svg>

<svg id="Layer_1" data-name="Layer 1" xmlns="http://www.w3.org/2000/svg" viewBox="0 0 106 106"><defs><style>.cls-1{fill:#ecac4b;}.cls-2{fill:#435766;}.cls-3{fill:#497485;}.cls-4{fill:#68ebfe;}</style></defs><title>Avatars</title><path class="cls-1" d="M84.5,106V62s1-27-32-24c0,0-27-2-30,23l-1,45Z"/><path class="cls-2" d="M27.5,62V83s5,7,24,7c0,0,21,2,27-7V63s-6-13-27-12C51.5,51,31.5,51,27.5,62Z"/><circle class="cls-3" cx="62" cy="72.5" r="7.5"/><circle class="cls-4" cx="61.84" cy="72.67" r="2.66"/><circle class="cls-3" cx="44" cy="72.5" r="7.5"/><circle class="cls-4" cx="43.84" cy="72.67" r="2.66"/><path class="cls-1" d="M52.82,20.56H54c.08.07.16.2.25.21,3,.23,5.15,2.28,5.85,5.56.14.63-.1,1.35.38,1.91V30.4c-.41.18-.31.62-.41.92-.46,1.42-1.33,2.69-2.74,2.9-2.21.34-2.27,1.65-2.1,3.31a11.78,11.78,0,0,1,0,1.19c0,3,0,3-3,3-1,0-1.12-.32-1.09-1.16.07-1.68,0-3.35,0-5,0-.49,0-.8-.67-.87-2.18-.23-3.3-1.69-4-3.63-.12-.39,0-.89-.47-1.15V27c.44-.17.32-.61.39-.91a6.86,6.86,0,0,1,5.62-5.31C52.35,20.77,52.69,20.94,52.82,20.56ZM53,31.25a3.77,3.77,0,1,0-3.74-3.82A3.7,3.7,0,0,0,53,31.25Z"/></svg>
